X:1
T:Bore Da Mrs Morris
M:6/8
R:Jig
K:G
B2 G D2 G | A2 F D2 A | c2 B A2 G | FAF DFA |
B2 G D2 C | B,2 D G2 B | c2 A G2 F | G2 G G2 G:||
d2 e c2 A | B2 G D2 C | DEF GBd | BAB c2 ^c |
d2 B e2 f | g2 e d2 c | BAB ecA | d3 D3:||
